public/media/theme/paypal.svg

<?xml version="1.0" encoding="UTF-8"?>
<svg width="61px" height="17px" viewBox="0 0 61 17" version="1.1" xmlns="http://www.w3.org/2000/svg" xmlns:xlink="http://www.w3.org/1999/xlink">
    <!-- Generator: Sketch 48.2 (47327) - http://www.bohemiancoding.com/sketch -->
    <title>Group</title>
    <desc>Created with Sketch.</desc>
    <defs></defs>
    <g id="P12---Payment-Window" stroke="none" stroke-width="1" fill="none" fill-rule="evenodd" transform="translate(-937.000000, -639.000000)">
        <g id="Form" transform="translate(804.000000, 342.000000)" fill="#FFFFFF">
            <g id="Paypal-Button" transform="translate(1.000000, 286.000000)">
                <g id="Group" transform="translate(132.000000, 11.000000)">
                    <path d="M41.2197868,4.42939048 C40.9637474,6.1269619 39.6779316,6.1269619 38.4346553,6.1269619 L37.7267342,6.1269619 L38.2235632,2.95767619 C38.2532605,2.76581905 38.4169974,2.6249619 38.6088263,2.6249619 L38.9338921,2.6249619 C39.7798658,2.6249619 40.5792868,2.6249619 40.9918395,3.11148571 C41.2382474,3.40210476 41.3128921,3.83358095 41.2197868,4.42939048 M40.6788132,-0.000323809524 L35.9898395,-0.000323809524 C35.6687868,-0.000323809524 35.3958921,0.235247619 35.3461289,0.555009524 L33.4495105,12.6816762 C33.4125895,12.9212952 33.5963921,13.1374381 33.8355763,13.1374381 L36.2418658,13.1374381 C36.4658,13.1374381 36.6568263,12.9731048 36.6921421,12.7496762 L37.2299053,9.31081905 C37.2796684,8.99186667 37.5533658,8.75629524 37.8736158,8.75629524 L39.3568789,8.75629524 C42.4462079,8.75629524 44.2288526,7.2489619 44.6943789,4.2602 C44.9038658,2.9544381 44.7024053,1.92715238 44.0964184,1.20829524 C43.4294316,0.4182 42.2471553,-0.000323809524 40.6788132,-0.000323809524" id="Fill-1"></path>
                    <path d="M7.77493158,4.42939048 C7.51889211,6.1269619 6.23307632,6.1269619 4.9898,6.1269619 L4.28187895,6.1269619 L4.77870789,2.95767619 C4.80840526,2.76581905 4.97214211,2.6249619 5.16397105,2.6249619 L5.48903684,2.6249619 C6.33501053,2.6249619 7.13443158,2.6249619 7.54698421,3.11148571 C7.79339211,3.40210476 7.86803684,3.83358095 7.77493158,4.42939048 M7.23395789,-0.000323809524 L2.54498421,-0.000323809524 C2.22393158,-0.000323809524 1.95103684,0.235247619 1.90127368,0.555009524 L0.00465526316,12.6816762 C-0.0322657895,12.9212952 0.150734211,13.1374381 0.390721053,13.1374381 L2.63006316,13.1374381 C2.95031316,13.1374381 3.22320789,12.9018667 3.27297105,12.5829143 L3.78505,9.31081905 C3.83481316,8.99186667 4.10851053,8.75629524 4.42876053,8.75629524 L5.91202368,8.75629524 C9.00135263,8.75629524 10.7839974,7.2489619 11.2495237,4.2602 C11.4590105,2.9544381 11.25755,1.92715238 10.6515632,1.20829524 C9.98457632,0.4182 8.8023,-0.000323809524 7.23395789,-0.000323809524" id="Fill-4"></path>
                    <path d="M18.1199697,8.78292857 C17.9032592,10.0765476 16.8847197,10.9459762 15.5852592,10.9459762 C14.934325,10.9459762 14.4126145,10.733881 14.0779171,10.3339762 C13.7456276,9.93811905 13.6204171,9.3722619 13.7255618,8.74407143 C13.927825,7.46097619 14.9632197,6.56483333 16.2418118,6.56483333 C16.8799039,6.56483333 17.3976013,6.7777381 17.7387197,7.18169048 C18.0830487,7.58807143 18.2186934,8.15635714 18.1199697,8.78292857 M21.2494303,4.37507143 L19.0036671,4.37507143 C18.8118382,4.37507143 18.6481013,4.51592857 18.6176013,4.70778571 L18.5188776,5.34083333 L18.3623645,5.1117381 C17.8759697,4.40016667 16.7916145,4.16135714 15.7096671,4.16135714 C13.2287329,4.16135714 11.1097855,6.05807143 10.6972329,8.71735714 C10.4829303,10.0441667 10.7879303,11.311881 11.533575,12.1966905 C12.2190224,13.0094524 13.1966276,13.3478333 14.3612461,13.3478333 C16.3614039,13.3478333 17.4698382,12.0525952 17.4698382,12.0525952 L17.3695092,12.6815952 C17.3325882,12.9204048 17.5155882,13.1373571 17.7563776,13.1373571 L19.7774039,13.1373571 C20.0984566,13.1373571 20.3713513,12.9025952 20.4219171,12.5828333 L21.6354961,4.83083333 C21.6732197,4.59121429 21.4894171,4.37507143 21.2494303,4.37507143" id="Fill-7"></path>
                    <path d="M51.5649053,8.78292857 C51.3481947,10.0765476 50.3296553,10.9459762 49.0301947,10.9459762 C48.3792605,10.9459762 47.85755,10.733881 47.5228526,10.3339762 C47.1905632,9.93811905 47.0653526,9.3722619 47.1704974,8.74407143 C47.3727605,7.46097619 48.4081553,6.56483333 49.6867474,6.56483333 C50.3248395,6.56483333 50.8425368,6.7777381 51.1836553,7.18169048 C51.5279842,7.58807143 51.6636289,8.15635714 51.5649053,8.78292857 M54.6943658,4.37507143 L52.4486026,4.37507143 C52.2567737,4.37507143 52.0930368,4.51592857 52.0625368,4.70778571 L51.9638132,5.34083333 L51.8064974,5.1117381 C51.3209053,4.40016667 50.23655,4.16135714 49.1546026,4.16135714 C46.6736684,4.16135714 44.5547211,6.05807143 44.1421684,8.71735714 C43.9278658,10.0441667 44.2328658,11.311881 44.9785105,12.1966905 C45.6639579,13.0094524 46.6415632,13.3478333 47.8061816,13.3478333 C49.8063395,13.3478333 50.9147737,12.0525952 50.9147737,12.0525952 L50.8144447,12.6815952 C50.7775237,12.9204048 50.9605237,13.1373571 51.2013132,13.1373571 L53.2223395,13.1373571 C53.5433921,13.1373571 53.8162868,12.9025952 53.8668526,12.5828333 L55.0804316,4.83083333 C55.1181553,4.59121429 54.9343526,4.37507143 54.6943658,4.37507143" id="Fill-9"></path>
                    <path d="M33.2081592,4.37507143 L30.9511592,4.37507143 C30.7352513,4.37507143 30.5337908,4.4827381 30.4125934,4.6632619 L27.2991855,9.28807143 L25.9796592,4.84378571 C25.8969882,4.56611905 25.6433566,4.37507143 25.3552118,4.37507143 L23.1375408,4.37507143 C22.8694618,4.37507143 22.6808434,4.64059524 22.7675276,4.89640476 L25.2516724,12.2541667 L22.9144092,15.5805 C22.7314092,15.8411667 22.9168171,16.2022143 23.2338566,16.2022143 L25.4884487,16.2022143 C25.7019487,16.2022143 25.9018039,16.0969762 26.0238039,15.9196905 L33.5292118,4.99435714 C33.7090013,4.73207143 33.5235934,4.37507143 33.2081592,4.37507143" id="Fill-11"></path>
                    <path d="M57.3406421,0.333280952 L55.4159316,12.6825667 C55.3790105,12.9213762 55.5620105,13.137519 55.8019974,13.137519 L57.7379447,13.137519 C58.0581947,13.137519 58.3318921,12.9027571 58.3808526,12.5829952 L60.2790763,0.455519048 C60.3159974,0.216709524 60.1329974,0.000566666667 59.8922079,0.000566666667 L57.7267079,0.000566666667 C57.5340763,0.000566666667 57.3703395,0.14142381 57.3406421,0.333280952" id="Fill-14"></path>
                </g>
            </g>
        </g>
    </g>
</svg>

<svg width="61" height="17" viewBox="0 0 61 17" xmlns="http://www.w3.org/2000/svg"><title>Group</title><path d="M41.22 4.43c-.256 1.697-1.542 1.697-2.785 1.697h-.708l.497-3.17a.391.391 0 0 1 .385-.332h.325c.846 0 1.645 0 2.058.486.246.291.32.723.228 1.318M40.679 0h-4.69a.653.653 0 0 0-.643.556L33.45 12.682a.394.394 0 0 0 .386.455h2.406a.457.457 0 0 0 .45-.387l.538-3.44a.654.654 0 0 1 .644-.554h1.483c3.09 0 4.872-1.507 5.337-4.496.21-1.306.008-2.333-.598-3.052C43.43.418 42.247 0 40.68 0M7.775 4.43C7.519 6.126 6.233 6.126 4.99 6.126h-.708l.497-3.17a.391.391 0 0 1 .385-.332h.325c.846 0 1.645 0 2.058.486.246.291.321.723.228 1.318M7.234 0H2.545a.653.653 0 0 0-.644.556L.005 12.682a.393.393 0 0 0 .386.455h2.24c.32 0 .592-.235.642-.554l.512-3.272a.654.654 0 0 1 .644-.555h1.483c3.09 0 4.872-1.507 5.338-4.496.209-1.306.008-2.333-.598-3.052C9.985.418 8.802 0 7.234 0M18.12 8.783c-.217 1.294-1.235 2.163-2.535 2.163-.65 0-1.172-.212-1.507-.612-.332-.396-.458-.962-.352-1.59.202-1.283 1.237-2.18 2.516-2.18.638 0 1.156.214 1.497.618.344.406.48.974.381 1.6m3.13-4.407h-2.246a.392.392 0 0 0-.386.333l-.1.633-.156-.23c-.486-.71-1.57-.95-2.652-.95-2.481 0-4.6 1.897-5.013 4.556-.214 1.327.09 2.595.837 3.48.685.812 1.663 1.15 2.827 1.15 2 0 3.109-1.294 3.109-1.294l-.1.629a.394.394 0 0 0 .386.455h2.021a.654.654 0 0 0 .645-.554l1.213-7.752a.393.393 0 0 0-.386-.456m30.316 4.408c-.217 1.294-1.235 2.163-2.535 2.163-.65 0-1.172-.212-1.507-.612-.332-.396-.458-.962-.353-1.59.203-1.283 1.238-2.18 2.517-2.18.638 0 1.156.214 1.497.618.344.406.48.974.38 1.6m3.13-4.407H52.45a.392.392 0 0 0-.386.333l-.1.633-.157-.23c-.485-.71-1.57-.95-2.651-.95-2.481 0-4.6 1.897-5.013 4.556-.214 1.327.09 2.595.837 3.48.685.812 1.663 1.15 2.827 1.15 2 0 3.109-1.294 3.109-1.294l-.1.629a.394.394 0 0 0 .386.455h2.021a.654.654 0 0 0 .645-.554L55.08 4.83a.393.393 0 0 0-.386-.456m-21.486.001h-2.257a.648.648 0 0 0-.538.288l-3.114 4.625-1.32-4.444a.653.653 0 0 0-.624-.469h-2.217a.393.393 0 0 0-.37.521l2.484 7.358-2.338 3.327a.395.395 0 0 0 .32.621h2.254a.65.65 0 0 0 .536-.282l7.505-10.926a.395.395 0 0 0-.32-.619M57.34.333l-1.924 12.35a.393.393 0 0 0 .386.455h1.936c.32 0 .594-.235.643-.555L60.279.456A.393.393 0 0 0 59.892 0h-2.165a.391.391 0 0 0-.386.332" fill="#FFF" fill-rule="evenodd"/></svg>
